X:214
T: Waiting for Nancy
C: (composed)
R: reel
M: C|
L: 1/8
%% Q: 1/2=118
K: C
|: "A"b2a2 b2a2 | b2a2 e3f | "G" g2f2 e2f2 | g2f2 e4 |
| "A"b2a2 b2a2 | b2a2 e3f | "G" g2f2 e2^c2 | d4 d4 :|
|: "C"c4 e3f | g2f2 e4 | "A7"g2f2 e4 | g2f2 e4 |
| "C"c4 e3f | g2f2 e3f | "C"g2f2 "A7"e2^c2 | "D"d4 d4 :|
%%newpage
%%text
%%text
%%text
%%text
